src/icons/signpost.svg

<svg width="24" height="24" viewBox="0 0 24 24" fill="none" xmlns="http://www.w3.org/2000/svg">
<path fill-rule="evenodd" clip-rule="evenodd" d="M11 0H13V3H19.2941L24 6.5L19.2941 10H13V12L22 12V19H13V24H11V19L4.70588 19L0 15.5L4.70588 12H11V10H2V3H11V0ZM4 5H18.6319L20.6487 6.5L18.6319 8H4V5ZM20 17L5.3681 17L3.35129 15.5L5.3681 14L20 14V17Z" fill="black"/>
</svg>

<svg xmlns="http://www.w3.org/2000/svg" width="24" height="24" fill="none"><path fill="currentColor" fill-rule="evenodd" d="M11 0h2v3h6.294L24 6.5 19.294 10H13v2h9v7h-9v5h-2v-5H4.706L0 15.5 4.706 12H11v-2H2V3h9zM4 5h14.632l2.017 1.5L18.632 8H4zm16 12H5.368l-2.017-1.5L5.368 14H20z" clip-rule="evenodd"/></svg>
